icons/.local/share/icons/We10X-black-dark/actions/32/autocorrection.svg

<svg xmlns="http://www.w3.org/2000/svg" viewBox="0 0 32 32">
  <defs
     id="defs3051">
    <style
       type="text/css"
       id="current-color-scheme">
      .ColorScheme-Text {
        color:#363636;
      }
      </style>
  </defs>
  <path
     style="fill:currentColor;fill-opacity:1;stroke:none" 
     d="M 23.779297 3.9804688 L 3.9804688 23.779297 L 8.2226562 28.023438 L 28.021484 8.2246094 L 23.779297 3.9804688 z M 6.25 4 L 5.453125 5.453125 L 4 6.25 L 5.453125 7.046875 L 6.25 8.5 L 7.046875 7.046875 L 8.5 6.25 L 7.046875 5.453125 L 6.25 4 z M 13.75 4 L 12.953125 5.453125 L 11.5 6.25 L 12.953125 7.046875 L 13.75 8.5 L 14.546875 7.046875 L 16 6.25 L 14.546875 5.453125 L 13.75 4 z M 23.777344 5.3945312 L 26.605469 8.2226562 L 20.947266 13.880859 L 18.119141 11.052734 L 23.777344 5.3945312 z M 9.25 10 L 8.453125 11.453125 L 7 12.25 L 8.453125 13.046875 L 9.25 14.5 L 10.046875 13.046875 L 11.5 12.25 L 10.046875 11.453125 L 9.25 10 z "
     id="path74" 
     class="ColorScheme-Text"
     />
</svg>

<svg version="1.1" viewBox="0 0 32 32" xmlns="http://www.w3.org/2000/svg">
 <defs>
  <style id="current-color-scheme" type="text/css">.ColorScheme-Text {
        color:#dedede;
      }</style>
 </defs>
 <path class="ColorScheme-Text" d="m6.25 4-0.79688 1.4531-1.4531 0.79688 1.4531 0.79688 0.79688 1.4531 0.79688-1.4531 1.4531-0.79688-1.4531-0.79688zm7.5 0-0.79688 1.4531-1.4531 0.79688 1.4531 0.79688 0.79688 1.4531 0.79688-1.4531 1.4531-0.79688-1.4531-0.79688zm-4.5 6-0.79688 1.4531-1.4531 0.79688 1.4531 0.79688 0.79688 1.4531 0.79688-1.4531 1.4531-0.79688-1.4531-0.79688z" fill="currentColor"/>
 <path class="ColorScheme-Text" d="m25.899 6.1005c-1.1752-1.1752-3.0674-1.1752-4.2426 0l-15.556 15.556c-1.1752 1.1752-1.1752 3.0674 0 4.2426 1.1752 1.1752 3.0674 1.1752 4.2426 0l15.556-15.556c1.1752-1.1752 1.1752-3.0674 0-4.2426zm-0.70711 0.70711c0.78347 0.78347 0.78347 2.045 0 2.8284l-2.8284 2.8284c-0.78347 0.78347-2.045 0.78347-2.8284 0s-0.78347-2.045 0-2.8284l2.8284-2.8284c0.78347-0.78347 2.045-0.78347 2.8284 0z" fill="currentColor"/>
</svg>
